X:1
T:Title
%%score { ( 1 4 ) | ( 2 3 ) }
L:1/8
Q:1/4=108
M:4/4
K:Ab
V:1 treble nm="Grand Piano"
V:4 treble 
V:2 bass 
V:3 bass 
V:1
 c3 c c2 A2 | [DFA]3 [A,DF] [A,CE]2 [CEA]2 | [EGB]3 [DGB] [EGB]2 [EAc]2 | [EGB]8 | %4
w: D.~B.~Towner * * *||||
 [EAc]3 [EAc] [EAc]2 [CEA]2 | [DFA]3 [A,DF] [A,CE]2 [CEA]2 | [EGB]3 [EAc] [EBd]2 [DEG]2 | [CEA]8 | %8
w: ||||
 [Fd]3 [Fd] [DF][FA] [Fd]2 | [Ec]3 [Ec] [A,CE][EA] [EAc]2 | [EGB]3 [EGB] [B,FB]2 [B,=DA]2 | %11
w: |||
 E6- [EF]2 | E3 A c2 A2 | [FA]2 [EG]F [A,CE]2 [CEA]2 | [EGB]3 [EAc] [EBd]2 [DEG]2 | [CEA]8 |] %16
w: |||||
V:2
 [A,E]3 [A,E] [A,E]2 [A,CE]2 | D,3 D, A,,2 A,,2 | E,3 E, E,2 E,2 | E,8 | A,3 A, A,2 A,2 | %5
 D,3 D, A,,2 A,,2 | E,3 E, E,2 E,2 | A,,8 | [D,A,]3 [D,A,] [D,A,]2 [D,A,]2 | %9
 [A,,A,]3 [A,,A,] z C A,,2 | B,,3 B,, =D,2 F,2 | z4 z2[K:treble] D2 | %12
 [A,C]3 [A,CE] [A,EA]2 [A,CE]2 | z2 [D,A,]2 z4 | E,3 E, E,2 E,2 | G,,8 |] %16
V:3
 x8 | x8 | x8 | x8 | x8 | x8 | x8 | x8 | x8 | z4 A,,2 z2 | x8 | E,8[K:treble] | x8 | %13
 [D,D]2 z D A,,2 A,,2 | x8 | x8 |] %16
V:4
 x8 | x8 | x8 | x8 | x8 | x8 | x8 | x8 | x8 | x8 | x8 | [B,G]6 z2 | x8 | x8 | x8 | x8 |] %16

